SVG_Azure_Grouped/Compute/Fluid Relay.svg

<?xml version="1.0" encoding="UTF-8" standalone="no"?>
<!-- Generated by Microsoft Visio, SVG Export Fluid Relay.svg Page-1 -->

<svg
   xmlns:dc="http://purl.org/dc/elements/1.1/"
   xmlns:cc="http://creativecommons.org/ns#"
   xmlns:rdf="http://www.w3.org/1999/02/22-rdf-syntax-ns#"
   xmlns:svg="http://www.w3.org/2000/svg"
   xmlns="http://www.w3.org/2000/svg"
   xmlns:sodipodi="http://sodipodi.sourceforge.net/DTD/sodipodi-0.dtd"
   xmlns:inkscape="http://www.inkscape.org/namespaces/inkscape"
   width="0.78735769in"
   height="0.78735769in"
   viewBox="0 0 56.689849 56.689998"
   xml:space="preserve"
   class="st3"
   version="1.1"
   id="svg24"
   sodipodi:docname="Fluid Relay.svg"
   style="font-size:12px;overflow:visible;color-interpolation-filters:sRGB;fill:none;fill-rule:evenodd;stroke-linecap:square;stroke-miterlimit:3"
   inkscape:version="0.92.5 (2060ec1f9f, 2020-04-08)"><metadata
   id="metadata30"><rdf:RDF><cc:Work
       rdf:about=""><dc:format>image/svg+xml</dc:format><dc:type
         rdf:resource="http://purl.org/dc/dcmitype/StillImage" /></cc:Work></rdf:RDF></metadata><defs
   id="defs28" /><sodipodi:namedview
   pagecolor="#ffffff"
   bordercolor="#666666"
   borderopacity="1"
   objecttolerance="10"
   gridtolerance="10"
   guidetolerance="10"
   inkscape:pageopacity="0"
   inkscape:pageshadow="2"
   inkscape:window-width="640"
   inkscape:window-height="480"
   id="namedview26"
   showgrid="false"
   inkscape:zoom="1.4590901"
   inkscape:cx="37.795171"
   inkscape:cy="35.519575"
   inkscape:window-x="0"
   inkscape:window-y="0"
   inkscape:window-maximized="0"
   inkscape:current-layer="svg24" />
	<style
   type="text/css"
   id="style2">
	<![CDATA[
		.st1 {fill:#0078d4;stroke:none;stroke-linecap:butt;stroke-width:30.6}
		.st2 {fill:#50e6ff;stroke:none;stroke-linecap:butt;stroke-width:30.6}
		.st3 {fill:none;fill-rule:evenodd;font-size:12px;overflow:visible;stroke-linecap:square;stroke-miterlimit:3}
	]]>
	</style>

	<g
   id="g22"
   transform="translate(-30.600156,-30.6043)">
		<title
   id="title4">Page-1</title>
		<g
   id="group11457-1"
   transform="translate(30.6,-34.0157)">
			<title
   id="title6">Fluid Relay.11457</title>
			<g
   id="group11458-2">
				<title
   id="title8">Sheet.11458</title>
				<g
   id="shape11459-3">
					<title
   id="title10">Sheet.11459</title>
					<path
   d="m 0,70.99 a 6.37795,6.37795 0 0 1 6.38,-6.37 h 9.92 a 6.37795,6.37795 0 0 1 6.38,6.37 v 9.92 A 6.37795,6.37795 0 0 1 16.3,87.29 H 6.38 A 6.37795,6.37795 0 0 1 0,80.91 Z m 28.35,28.35 a 6.37795,6.37795 0 0 1 6.37,-6.38 h 15.59 a 6.37795,6.37795 0 0 1 6.38,6.38 v 15.59 a 6.37795,6.37795 0 0 1 -6.38,6.38 H 34.72 a 6.37795,6.37795 0 0 1 -6.37,-6.38 z"
   class="st1"
   id="path12"
   inkscape:connector-curvature="0"
   style="fill:#0078d4;stroke:none;stroke-width:30.60000038;stroke-linecap:butt" />
				</g>
				<g
   id="shape11460-5"
   transform="translate(8.50394,-8.50394)">
					<title
   id="title15">Sheet.11460</title>
					<path
   d="M 33.42,81.62 H 17.01 v 9.05 a 7.96535,7.96535 0 0 1 -8,7.96 H 0 v 16.41 a 6.20787,6.20787 -180 0 0 6.24,6.27 h 10.82 v -15 a 7.6252,7.6252 0 0 1 7.63,-7.68 H 39.66 V 87.86 a 6.20787,6.20787 -180 0 0 -6.24,-6.24 z"
   class="st2"
   id="path17"
   inkscape:connector-curvature="0"
   style="fill:#50e6ff;stroke:none;stroke-width:30.60000038;stroke-linecap:butt" />
				</g>
			</g>
		</g>
	</g>
</svg>

<?xml version="1.0" encoding="UTF-8" standalone="no"?>
<!DOCTYPE svg PUBLIC "-//W3C//DTD SVG 1.1//EN" "http://www.w3.org/Graphics/SVG/1.1/DTD/svg11.dtd">
<!-- Generated by Microsoft Visio, SVG Export Fluid Relay.svg Page-1 -->
<svg xmlns="http://www.w3.org/2000/svg" xmlns:xlink="http://www.w3.org/1999/xlink" xmlns:ev="http://www.w3.org/2001/xml-events"
		width="1.6374in" height="1.68484in" viewBox="0 0 117.893 121.309" xml:space="preserve" color-interpolation-filters="sRGB"
		class="st3">
	<style type="text/css">
	<![CDATA[
		.st1 {fill:#0078d4;stroke:none;stroke-linecap:butt;stroke-width:30.6}
		.st2 {fill:#50e6ff;stroke:none;stroke-linecap:butt;stroke-width:30.6}
		.st3 {fill:none;fill-rule:evenodd;font-size:12px;overflow:visible;stroke-linecap:square;stroke-miterlimit:3}
	]]>
	</style>

	<g>
		<title>Page-1</title>
		<g id="group11178-1" transform="translate(30.6,-34.0157)">
			<title>Fluid Relay.11178</title>
			<g id="group11179-2">
				<title>Sheet.11179</title>
				<g id="shape11180-3">
					<title>Sheet.11180</title>
					<path d="M0 70.99 A6.37795 6.37795 0 0 1 6.38 64.62 L16.3 64.62 A6.37795 6.37795 0 0 1 22.68 70.99 L22.68 80.91
								 A6.37795 6.37795 0 0 1 16.3 87.29 L6.38 87.29 A6.37795 6.37795 0 0 1 -0 80.91 L0 70.99 ZM28.35 99.34
								 A6.37795 6.37795 0 0 1 34.72 92.96 L50.31 92.96 A6.37795 6.37795 0 0 1 56.69 99.34 L56.69 114.93
								 A6.37795 6.37795 0 0 1 50.31 121.31 L34.72 121.31 A6.37795 6.37795 0 0 1 28.35 114.93 L28.35 99.34
								 Z" class="st1"/>
				</g>
				<g id="shape11181-5" transform="translate(8.50394,-8.50394)">
					<title>Sheet.11181</title>
					<path d="M33.42 81.62 L17.01 81.62 L17.01 90.67 A7.96535 7.96535 0 0 1 9.01 98.63 L0 98.63 L0 115.04 A6.20787
								 6.20787 -180 0 0 6.24 121.31 L17.06 121.31 L17.06 106.31 A7.6252 7.6252 0 0 1 24.69 98.63 L39.66
								 98.63 L39.66 87.86 A6.20787 6.20787 -180 0 0 33.42 81.62 Z" class="st2"/>
				</g>
			</g>
		</g>
	</g>
</svg>
